src/pos-icons/notebook-multiple.svg

<svg height="24" viewBox="0 0 24 24" width="24" xmlns="http://www.w3.org/2000/svg"><path d="m9.05 9h-1.99v-3h1.99v-1.97h-1.99v-1c0-1.11.89-1.99 1.99-1.99h5.98v6.96l2.47-1.5 2.5 1.5v-6.96h1c1.05 0 2 .96 2 1.99v13.97c0 1.03-.95 2-2 2h-11.95c-1.05 0-1.99-.95-1.99-2v-1h1.99v-2h-1.99v-3h1.99zm-8.05 9h2v-3h-2v-2h2v-3h-2v-2h2v-3h2v3h-2v2h2v3h-2v2h2v3h-2v2h2v1h16v2h-16a2 2 0 0 1 -2-2v-1h-2z"/></svg>

<?xml version="1.0" encoding="UTF-8"?><!DOCTYPE svg PUBLIC "-//W3C//DTD SVG 1.1//EN" "http://www.w3.org/Graphics/SVG/1.1/DTD/svg11.dtd"><svg xmlns="http://www.w3.org/2000/svg" xmlns:xlink="http://www.w3.org/1999/xlink" version="1.1" id="mdi-notebook-multiple" width="24" height="24" viewBox="0 0 24 24"><path d="M9.05,9H7.06V6H9.05V4.03H7.06V3.03C7.06,1.92 7.95,1.04 9.05,1.04H15.03V8L17.5,6.5L20,8V1.04H21C22.05,1.04 23,2 23,3.03V17C23,18.03 22.05,19 21,19H9.05C8,19 7.06,18.05 7.06,17V16H9.05V14H7.06V11H9.05V9M1,18H3V15H1V13H3V10H1V8H3V5H5V8H3V10H5V13H3V15H5V18H3V20H5V21H21V23H5A2,2 0 0,1 3,21V20H1V18Z" /></svg>
